src/front_assets/svg/affordable.svg

<svg width="30" height="30" viewBox="0 0 30 30" fill="none" xmlns="http://www.w3.org/2000/svg">
<path d="M21.25 5H8.75C5 5 2.5 6.875 2.5 11.25V15.7C2.5 16.1625 2.975 16.45 3.3875 16.2625C4.6125 15.7 6.025 15.4875 7.5125 15.75C10.8 16.3375 13.2125 19.3875 13.125 22.725C13.1125 23.25 13.0375 23.7625 12.9 24.2625C12.8 24.65 13.1125 25.0125 13.5125 25.0125H21.25C25 25.0125 27.5 23.1375 27.5 18.7625V11.25C27.5 6.875 25 5 21.25 5ZM15 18.125C13.275 18.125 11.875 16.725 11.875 15C11.875 13.275 13.275 11.875 15 11.875C16.725 11.875 18.125 13.275 18.125 15C18.125 16.725 16.725 18.125 15 18.125ZM24.0625 17.5C24.0625 18.0125 23.6375 18.4375 23.125 18.4375C22.6125 18.4375 22.1875 18.0125 22.1875 17.5V12.5C22.1875 11.9875 22.6125 11.5625 23.125 11.5625C23.6375 11.5625 24.0625 11.9875 24.0625 12.5V17.5Z" fill="url(#paint0_linear_26_15)"/>
<path d="M6.25 17.5C3.4875 17.5 1.25 19.7375 1.25 22.5C1.25 23.4375 1.5125 24.325 1.975 25.075C2.8375 26.525 4.425 27.5 6.25 27.5C8.075 27.5 9.6625 26.525 10.525 25.075C10.9875 24.325 11.25 23.4375 11.25 22.5C11.25 19.7375 9.0125 17.5 6.25 17.5ZM8.7125 22.0875L6.05 24.55C5.875 24.7125 5.6375 24.8 5.4125 24.8C5.175 24.8 4.9375 24.7125 4.75 24.525L3.5125 23.2875C3.15 22.925 3.15 22.325 3.5125 21.9625C3.875 21.6 4.475 21.6 4.8375 21.9625L5.4375 22.5625L7.4375 20.7125C7.8125 20.3625 8.4125 20.3875 8.7625 20.7625C9.1125 21.1375 9.0875 21.7375 8.7125 22.0875Z" fill="url(#paint1_linear_26_15)"/>
<defs>
<linearGradient id="paint0_linear_26_15" x1="3" y1="24.6123" x2="38.8778" y2="-16.223" gradientUnits="userSpaceOnUse">
<stop offset="0.138287" stop-color="#FFB23F"/>
<stop offset="0.467052" stop-color="#FAD8A5"/>
</linearGradient>
<linearGradient id="paint1_linear_26_15" x1="12.7682" y1="90.0926" x2="-12.9246" y2="88.0569" gradientUnits="userSpaceOnUse">
<stop offset="0.25249" stop-color="#40B4A6"/>
<stop offset="0.637527" stop-color="#A6D8D2"/>
</linearGradient>
</defs>
</svg>

<svg xmlns="http://www.w3.org/2000/svg" width="30" height="30" fill="none"><path fill="url(#a)" d="M21.25 5H8.75C5 5 2.5 6.875 2.5 11.25v4.45c0 .463.475.75.888.563a6.92 6.92 0 0 1 4.125-.513c3.287.587 5.7 3.637 5.612 6.975a6.4 6.4 0 0 1-.225 1.537c-.1.388.213.75.612.75h7.738c3.75 0 6.25-1.875 6.25-6.25V11.25C27.5 6.875 25 5 21.25 5M15 18.125a3.126 3.126 0 0 1 0-6.25 3.126 3.126 0 0 1 0 6.25m9.063-.625a.944.944 0 0 1-.938.938.944.944 0 0 1-.937-.938v-5c0-.512.425-.937.937-.937s.938.425.938.937z"/><path fill="url(#b)" d="M6.25 17.5c-2.762 0-5 2.238-5 5 0 .938.262 1.825.725 2.575A4.96 4.96 0 0 0 6.25 27.5a4.96 4.96 0 0 0 4.275-2.425c.463-.75.725-1.637.725-2.575 0-2.762-2.238-5-5-5m2.463 4.587L6.05 24.55a.95.95 0 0 1-.638.25.93.93 0 0 1-.662-.275l-1.237-1.237a.943.943 0 0 1 0-1.326.943.943 0 0 1 1.325 0l.6.6 2-1.85a.944.944 0 0 1 1.324.05.944.944 0 0 1-.05 1.325"/><defs><linearGradient id="a" x1="3" x2="38.878" y1="24.612" y2="-16.223" gradientUnits="userSpaceOnUse"><stop offset=".138" stop-color="#FFB23F"/><stop offset=".467" stop-color="#FAD8A5"/></linearGradient><linearGradient id="b" x1="12.768" x2="-12.925" y1="90.093" y2="88.057" gradientUnits="userSpaceOnUse"><stop offset=".252" stop-color="#40B4A6"/><stop offset=".638" stop-color="#A6D8D2"/></linearGradient></defs></svg>
